!!!COM: Palestrina, Giovanni Perluigi da
!!!OPR: Missa Gia fu chi m'ebbe cara
!!!OMD: Benedictus
!!!OTL: Hosanna
**kern	**kern	**kern	**kern
*Ibass	*Itenor	*Icalto	*Icant
!Bassus	!Tenor	!Altus	!Cantus
*clefF4	*clefGv2	*clefG2	*clefG2
*k[]	*k[]	*k[]	*k[]
*D:dor	*D:dor	*D:dor	*D:dor
*M4/2	*M4/2	*M4/2	*M4/2
=27	=27	=27	=27
1D	1d	1f#	1a
1D	1d	2f#	2a
.	.	2f#	2a
=28	=28	=28	=28
2G	1d	4g	4b
.	.	4a	4cc
2G	.	4b	4dd
.	.	4a	4cc
2G	1r	4g	4b
.	.	4f	4a
2G	.	4e	4g
.	.	4d	4f
=29	=29	=29	=29
4A	2r	2.c	2e
4B	.	.	.
4c	2c	.	2e
4B	.	4d	.
4A	2c	2e	2.a
4G	.	.	.
4F	2c	2A	.
4E	.	.	4g
=30	=30	=30	=30
1D	4d	2.a	2f
.	4e	.	.
.	4f	.	2d
.	4e	4g	.
1D	4d	1f	[1dd
.	4c	.	.
.	4B	.	.
.	4A	.	.
=31	=31	=31	=31
1E	2G	1e	2dd]
.	1A	.	2cc
1E	.	2r	1b
.	2G#	2e	.
=32	=32	=32	=32
2r	2A	1e	2cc#
2A	2e	.	2cc#
1A	2e	1a	2cc#
.	2e	.	2cc#
=33	=33	=33	=33
1d	4f	2r	4dd
.	4g	.	4ee
.	4a	2f	4ff
.	4g	.	4ee
1D	4f	2f	4dd
.	4e	.	4cc
.	4d	2f	4b-
.	4c	.	4a
=34	=34	=34	=34
0G	1d	4g	2b-
.	.	4a	.
.	.	4b-	2g
.	.	4a	.
.	2.g	4g	1b-
.	.	4f	.
.	.	4e	.
.	4f	4d	.
=35	=35	=35	=35
0A	2e	2c#	[0a
.	1d	2d	.
.	.	1e	.
.	2c#	.	.
=36	=36	=36	=36
0D	0d	0f#	0a]
==	==	==	==
*-	*-	*-	*-
!!!CDT: 1525/^1526/-1594/2/2
!!!OCY: Italia
!!!AGN: Mass (Parody)
!!!AST: renaissance, vocal
!!!ASW: Madrigal 1555 (Palestrina)
!!!PWK: Masses, Book 10
!!!RNB: Cadence finals: A
!!!YOR: Le Opere Complete, v. 27, p. 30
!!!YOO: Rome, Italy: Fratelli Scalera
!!!END: 1992//
!!!EED: John Miller
!!!YEC: Copyright 2000, John Miller
!!!YEN: United States of America
!!!YEM: Rights to all derivative electronic formats reserved.
!!!YEM: Refer to licensing agreement for further details.
!!!YEM: This file must be accompanied by the licensing agreement.
!!!YEM: A copy of the licensing agreement may be found at http://www.music-cog.ohio-state.edu/HumdrumDatabases/Palestrina/license.txt
!!!EMD: converted to Humdrum by Bret Aarden
